X:1
T:8 Lieder and Romances, Op.14
T:Sehnsucht
T:8. Sehnsucht
T:Johannes Brahms
T:Volkslied
T:8 Lieder and Romances, Op.14
T:Creative Commons copyright waiver (CC0 1.0 Universal) 
C:Johannes Brahms
Z:Volkslied
Z:Creative Commons copyright waiver (CC0 1.0 Universal)
Z:
%%score 1 { ( 2 4 ) | 3 }
L:1/8
Q:1/4=100
M:3/4
K:G
V:1 treble nm="Singstimme\nVoice"
V:2 treble nm="Pianoforte"
V:4 treble 
V:3 bass 
V:1
"^Andante" z6 | z2 z2!mp! B2 | B2 e2 d2 | B4 G2 | B2 A2 F2 | E4 G A | B2 e2 d2 | B4 G G | %8
w: |Mein|Schatz ist nicht|da, ist|weit ü- berm|See, und so|oft ich dran|denk, tut mirs|
 B2 A2 F2 | E4!p! G2 | A2 G2 A2 | B4"^cresc." G A | B2 e2 d2 | B4 G A | B2 g2 e2 | %15
w: Her- ze so|weh! Schön|blau ist der|See und mein|Herz tut mir|weh, und mein|Herz wird nicht|
!f! f2[Q:1/4=92]"^rit." z2!>(! d ^c!>)! |!p! B2 A2 F2 | E4 G2 | A2 G2 A2 | B2 z2"^cresc." A B | %20
w: g'sund, bis mein|Schatz wie- der|kommt! Schön|blau ist der|See und mein|
 ^c2 e2 d2 | B2 z2 A B |!f! ^c2 g2 e2 ||[M:4/4] f2 z2!>(! d2!>)! ^c2 ||[M:3/4]!p! B2 A2 F2 | %25
w: Herz tut mir|weh, und mein|Herz wird nicht|g'sund, bis mein|Schatz wie- der|
 E4 z2 |] %26
w: kommt.|
V:2
 [EGB]6- | [EGB]6 | (B2 e2 d2 | B4) (G2 | B2 A2 F2 | [A,^CE]4) [EG][FA] | (B2 e2 d2 | B4) (G2 | %8
 B2 A2 F2 | E4) ([B,G]2 | [=DA]2 [B,G]2 [DA]2 | [GB]2) [B,G]2 [DA]2 | B2 e2 d2 | B2 G2 A2 | %14
 B2 [Bdg]2 [A^ce]2 | [Adf]2"_rit." (d2 ^c2) | B2 A2 ^G2 | [G,E]4 ([B,G]2 | [=DA]2 [B,G]2 [DA]2 | %19
 [GB]2) [DA]2 [GB]2 | [G^c]2 [Gce]2 [Ad]2 | [GB]2 [DA]2 [GB]2 | ^c2 g2 e2 || %23
[M:4/4] [df]2!f!!>(! (d4!>)! ^c2) ||[M:3/4]!p! B2 A2 F2 | [G,E]4 z2 |] %26
V:3
!p! z6 | z6 | (E,4 F,2 | G,6) | (G,,2 F,,2 D,,2 | A,,4) E,,2 | (E,4 F,2 | G,6) | (G,,2 A,,2 B,,2 | %9
 E,,4)!p! [E,,E,]2 | [D,,D,]4 [D,,D,]2 |"^cresc." [G,,G,]6 | [G,,G,]4 [F,,F,]2 | [G,,G,]6 | %14
 [G,,G,]4 [A,,A,]2 |!f! [D,D]4!>(! [F,,F,]2!>)! | [G,,G,]2 A,,2 B,,2 | E,,4!p! [E,,E,]2 | %18
 [D,,D,]4 [D,,D,]2 |"^cresc." [G,,G,]4 [G,,G,]2 | [E,,E,]4 [F,,F,]2 | [G,,G,]4 [G,,G,]2 | %22
!f! [A,,A,]4 [A,,A,]2 ||[M:4/4] [D,,D,]4 [F,,F,]4 ||[M:3/4] [G,,G,]2 A,,2 B,,2 | E,,4 z2 |] %26
V:4
 x6 | x6 | [EG]2 [GB]2 [DA]2 | [DG]4 B,2 | [DG]2 D2 [A,D]2 | x4 B,2 | [EG]2 [GB]2 [DA]2 | %7
 [DG]4 B,2 | [DG]2 [^CE]2 [A,^D]2 | G,4 x2 | x6 | x6 | [GB]4 [DA]2 | [DG]2 B,2 D2 | G2 x4 | %15
 x2 [FA]4 | [DG]2 [^CE]2 [A,^D]2 | x6 | x6 | x6 | x6 | x6 | E2 [A^c]4 ||[M:4/4] A2 [FA]6 || %24
[M:3/4] [DG]2 [^CE]2 [A,^D]2 | x6 |] %26

